icons/archive-17.svg

<svg width="16" height="17" viewBox="0 0 16 17" fill="none" xmlns="http://www.w3.org/2000/svg">
<path fill-rule="evenodd" clip-rule="evenodd" d="M3.3125 4.07544C3.26277 4.07544 3.21508 4.09519 3.17991 4.13035C3.14476 4.16552 3.125 4.21321 3.125 4.26294V5.38794C3.125 5.49144 3.209 5.57544 3.3125 5.57544H12.6875C12.7372 5.57544 12.7849 5.55568 12.8201 5.52052C12.8553 5.48536 12.875 5.43766 12.875 5.38794V4.26294C12.875 4.21321 12.8553 4.16552 12.8201 4.13035C12.7849 4.09519 12.7372 4.07544 12.6875 4.07544H3.3125ZM2 4.26294C2 3.53844 2.588 2.95044 3.3125 2.95044H12.6875C13.412 2.95044 14 3.53844 14 4.26294V5.38794C14 5.73604 13.8617 6.06988 13.6156 6.31602C13.3694 6.56216 13.0356 6.70044 12.6875 6.70044H3.3125C2.9644 6.70044 2.63056 6.56216 2.38442 6.31602C2.13828 6.06988 2 5.73604 2 5.38794V4.26294ZM3.3125 7.45044C3.46168 7.45044 3.60476 7.5097 3.71025 7.61519C3.81573 7.72068 3.875 7.86376 3.875 8.01294V12.1379C3.875 12.2414 3.959 12.3254 4.0625 12.3254H11.9375C11.9872 12.3254 12.0349 12.3057 12.0701 12.2705C12.1053 12.2354 12.125 12.1877 12.125 12.1379V8.01294C12.125 7.86376 12.1842 7.72068 12.2898 7.61519C12.3952 7.5097 12.5383 7.45044 12.6875 7.45044C12.8367 7.45044 12.9798 7.5097 13.0852 7.61519C13.1908 7.72068 13.25 7.86376 13.25 8.01294V12.1379C13.25 12.486 13.1117 12.8198 12.8656 13.066C12.6194 13.3121 12.2856 13.4504 11.9375 13.4504H4.0625C3.7144 13.4504 3.38056 13.3121 3.13442 13.066C2.88828 12.8198 2.75 12.486 2.75 12.1379V8.01294C2.75 7.86376 2.80927 7.72068 2.91475 7.61519C3.02024 7.5097 3.16332 7.45044 3.3125 7.45044ZM6.6875 8.20044C6.53832 8.20044 6.39524 8.2597 6.28975 8.36519C6.18426 8.47068 6.125 8.61376 6.125 8.76294C6.125 8.91212 6.18426 9.0552 6.28975 9.16069C6.39524 9.26617 6.53832 9.32544 6.6875 9.32544H9.3125C9.46168 9.32544 9.60477 9.26617 9.71023 9.16069C9.81575 9.0552 9.875 8.91212 9.875 8.76294C9.875 8.61376 9.81575 8.47068 9.71023 8.36519C9.60477 8.2597 9.46168 8.20044 9.3125 8.20044H6.6875Z" fill="#272431"/>
</svg>

<svg xmlns="http://www.w3.org/2000/svg" width="16" height="17" viewBox="0 0 16 17"><path fill-rule="evenodd" d="M3.313 4.075a.188.188 0 00-.188.188v1.125c0 .103.084.187.188.187h9.374a.188.188 0 00.188-.187V4.263a.187.187 0 00-.188-.188H3.313zM2 4.263c0-.725.588-1.313 1.313-1.313h9.374c.725 0 1.313.588 1.313 1.313v1.125A1.313 1.313 0 0112.687 6.7H3.313A1.313 1.313 0 012 5.388V4.263zM3.313 7.45a.563.563 0 01.562.563v4.125c0 .103.084.187.188.187h7.875a.187.187 0 00.187-.187V8.013a.562.562 0 111.125 0v4.125a1.313 1.313 0 01-1.313 1.312H4.064a1.313 1.313 0 01-1.313-1.312V8.013a.563.563 0 01.563-.563zm3.374.75a.563.563 0 100 1.125h2.625a.562.562 0 100-1.125H6.688z"/></svg>
